X: 6
T: Oak Tree, The
Z: Cashel
S: https://thesession.org/tunes/212#setting51681
R: reel
M: 4/4
L: 1/8
K: Dmaj
|:FDAD BDAD | FGAF GEFD | ~A,3B, CA,EA, | (3A,A,A, EA, CDEG |
FDAD BDAD | FGAF GEFA | (3Bcd (3efg feec |1 dcce dBAG :|2 dcce dfeg ||
|: fB (3BBB fa^ga | fece f2 ed | cA (3AAA fAeA | (3Bcd ea fece |
fB (3BBB Ba^ga | fece f2 ec | ABce a2 ^ga |1 faec Bcde :|2 faec B2 ce ||
(3ddd fd (3ddd fd | (3ccc ec (3ccc ec | ~d2 fd Adfg | affe dcBc |
d2 fd Adfd | c2 ec Acec |dfaf gfed | (3Bcd ce dBAG ||

%-------------------- TUNE SEPARATOR --------------------%

